X:1
T:10 Preludes
T:Prelude op. 23 no. 4 
T:S. Rachmaninov
C:Sergei Vasilievich Rachmaninoff
Z:Серге́й Васи́льевич Рахма́нинов
%%score { ( 1 3 ) | ( 2 4 5 ) }
L:1/8
Q:1/4=50
M:3/4
K:D
V:1 treble nm="Piano" snm="Pno."
V:3 treble 
V:2 bass 
V:4 bass 
V:5 bass 
V:1
"^Andante cantabile."!pp! z6 | z6 |!mf!"^sempre cantabile e legato" (!4!F4 E2 | F4) (!2!B,2 | %4
 !1!C4 D!tenuto!C/!tenuto!D/ | !tenuto!E4)!<(! (F2!<)! | G4 !4!F2 | G4)!>(! (!3!D2!>)! | %8
 !tenuto!!4!E4 !5!F!<(!!tenuto!!3!E/!tenuto!!4!F/!<)! | !tenuto!!5!G4 !4!^G2) |!f! (A4 ^G2) | %11
 (A4-!>(! (3A!tenuto!!4!=G3/2!tenuto!!3!F/)!>)! |!mf! (!5!F4 E2) | %13
 (F4 (3:2:2!tenuto!E2 !tenuto!F) |!p! D3!<(! !tenuto!F!tenuto!A!tenuto!d!<)! | %15
!f! !tenuto![CDAc]4"^_"!>(! [B,DGB]2!>)! | !tenuto!E6-!p! | E6 | %18
!pp! (3z (!5!d!3!c (3!2!B!1!A!3!B (3!5!cBc) | (3z (dc (3BAF (3GFG) | (3z (AG (3EGA (3BAB) | %21
 (3z (cB (3ABc (3d!<(!^cd)!<)! | (3z (ed (3Bcd (3dcd) | (3z (ed (3BGA (3B!<(!AB)!<)! | %24
 (3z (=cB (3GAB (3c^cd) | (3z (ed (3Bcd (3d!<(!e^e)!<)! |!f! (3z (fe (3dcd (3ede) | %27
 (3z fe (3dcB (3cde | (3z!mf! dc (3B^AB (3cBc | (3z dc (3B^AB (3=cBc | %30
!p! (3z (_BG (3:2:2D2)!<(! !tenuto!G !tenuto!B!tenuto!d!<)! |!f! !tenuto![=CDA=c]4!>(! x2!>)! | %32
 !tenuto![G,_B,DE]6 | E4- E!tenuto!D |!pp! z F2 (EFB, | CDFA!<(![DB][Ec])!<)! | %36
!p! ([DBd]3 [Ec][Fd][CE] | [DF]!tenuto![Ec]!tenuto![Ec]!<(![Fd]-[Fd]!arpeggio![D^Ge]!<)! | %38
!mf! !arpeggio!!tenuto![CAca]3)!>(! ([DB]!>)![Ec][B,D] | %39
 [CE][DB][Ec]!<(!!tenuto![Bd]!tenuto![Bd][ce])!<)! |!mf! ([=CA=c]3!>(! [DB]!>)![Ec][B,D] | %41
 [=CE][DB]=c[Bd]!tenuto![Gce]!tenuto![Acf]) | %42
!pp![Q:1/4=50]"^a tempo" !arpeggio!!tenuto![GBeb]3 ([FA][GB][A,F] | %43
 [B,G]!tenuto![FA][FA]!<(!!tenuto![G-B][A=c][Bd])!<)! |!mf! [B,GB]3!>(! ([FA]!>)![GB][A,=C] | %45
 [B,D][FA][GB][FA][GB][A=c]) |!p! ([D_Bd][FA][GB][A=c][DBd][Ee]) | %47
 ([=F_Bd=f][_B,B][FBd][Ff][Gdg][Aa]) | ([_Bdg_b][Ff][Gg][Aa][Bdgb][=c=c']) | %49
!<(! ([^cg^c']!8va(![d_bd'][_eg_e'][fc'f'][gbg'][ac'a'])!<)! | %50
!ff! !>![^ad'g'^a']!>![=bd'g'=b']!>![=ad'f'=a']!>![gbe'g']!>![fbd'f']!>![egbe']!8va)! | %51
 !>![dfbd']!>![Bdgb]!>![Adfa]!>![GBeg]!>(!(!tenuto![FBdf][Ece])!>)! | %52
!mf! !tenuto![Fdf]4 !tenuto![Ece]2 | !tenuto![Fdf]4 !tenuto![B,FB]2 | %54
 !tenuto![CGAc]4 (3!tenuto![DBd]3/2(!tenuto!c/!tenuto![DBd]) | %55
 !arpeggio!!tenuto![CGce]4 !tenuto![Fdf]2 |!mf! !arpeggio!!tenuto![EBeg]4 !tenuto![F^df]2 | %57
!>(! !arpeggio!!tenuto![GBeg]4!p! !>!!tenuto![=DB=d]2!>)! | !tenuto![EGce]4 !tenuto![Fdf]2 | %59
 !tenuto![GBeg]4 !tenuto![^G^e^g]2 |!f! !arpeggio!!tenuto![CFAca]4 !tenuto![^G^e^g]2 | %61
 !arpeggio!!tenuto![CFAca]4 z e' |!mf! !tenuto![Fdf]4 !tenuto![Ece]2 | %63
 !tenuto![Fdf]4 (3:2:2!tenuto![Ece]2 !tenuto!f | %64
!p! !tenuto![DFBd]3!<(! !tenuto![Ff]!tenuto![Ada]!tenuto![dd']!<)! | %65
!mf! !tenuto![cdac']4!>(! !tenuto![Bdgb]2!>)! |!p! !tenuto![DGBe]6- | %67
 [DGBe]!<(!!tenuto![Dd]!<)! !tenuto![CGc]3!>(! !tenuto![Dd]!>)! |!p! !tenuto![DBd]6 | %69
!p! !tenuto![=CDA=c]4!>(! !tenuto![_B,G_B]2!>)! | !arpeggio![F,DA]4- x2 | %71
 [F,DA]2 !tenuto![G,CG]3 !tenuto!F |!pp! !tenuto![F,DF]3 (EFB, | CD!<(!FAde)!<)! | %74
!mf! !tenuto![F^Gdf]6- | [FGdf] z!p! !tenuto![=G,CE]3!>(! .D!>)! |!pp! !fermata![F,D]6 |] %77
V:2
 (3(D,,!5!A,!2!D (3!1!A!2!D!1!A, (3!2!F,!5!A,,D) | (3(D,,A,D (3ADA, (3!2!F,!5!A,,D) | %2
 (3z (D,,A, (3ADA,) (3z[K:treble] ([CGA]!5!A,) | (3z (D,A, (3ADA,) (3z ([DA]A,) | %4
[K:bass] (3z (D,,A,[K:treble] (3[GA]DA,) (3z ([B,A]A,) | %5
 (3z (D,A, (3[GA]CA,) (3z !arpeggio![=CAd][K:bass]D, | (3z D,,B,[K:treble] (3dDB,- (3B,^A,D | %7
 (3z D,B, (3dDB,- (3B,[K:bass]G,F, | (3(D,,G,B,[K:treble] (3BB,G,) (3z ([A,D]=c) | %9
 (3z (D,B, (3dDB,)[K:bass]"^cresc." (3z (B,^B,) | %10
 (3F,,,([C,A,]C[K:treble] (3cFA,) (3z[K:treble] (B,d) | %11
[K:bass] (3([F,,C,]A,C[K:treble] (3cFA,)[K:bass]"^dim." (3z (D,G,,) | %12
 (3z (D,,A,[K:treble] (3ADA,) (3z (_BG,) |[K:bass] (3z (D,,A, (3A"^dim."DA, (3G,^A,,) z | %14
 (3z (B,,,F, (3DB,F,) (3([F,,A,]D,F,,) | (3([E,,,E,,]!5!B,,!1!D (3!1!ADG, (3F,E,D) | %16
 (3z (A,,,!1!E, (3!3!B,!1!D!3!F (3!2!AGF | (3EDB,"^dim." (3A,F,E, (3B,,C,A,,) | %18
 (!5!D,,!1!A,,!3!F,!1!D!2!G,!1!A,,) | (D,,A,,!3!F,!1!D!2!F,!5!A,,) | (D,,!1!A,,!2!G,C!2!F,A,,) | %21
 (D,,!1!A,,!4!G,!2!C!1!=CD,) | z (D,,DB,^A,D,) | z (D,,DB,G,F,) |"^cresc." z (D,,B,G,A,D) | %25
 z (D,DB,_B,D) | [D,,A,,][K:treble](A,FA[C_B]_B,) |[K:bass] [D,,A,,](A,FDE"^dim."^A,) | %28
 B,,,(F,DF[^A,G]G,) | B,,,(F,DB,=A,"^dim."F,,) | ([G,,,G,,]D,) x4 | %31
 z (D,G,D)[K:treble] (3:2:2(!tenuto![_B,G_B]2[K:bass] E,) |!p! z (E,G,E"^dim." D2) | %33
 z2 (3z (A,F, (3E,A,,!5!A,,,) | (3(!3!D,,!1!A,,!3!F, (3A,B,C (3DA,G, | %35
 (3F,E,D, (3!1!B,,!2!A,,!3!F,,- (3F,,!5!D,,!3!C,,) | (3(!5!B,,,F,B, (3FB,F,) (3z (F,B,, | %37
 (3F,B,F-) (3(FB,F, (3E,B,E) | (3(A,,,E,A, (3EA,E,) (3z (E,A,, | (3E,A,)E- (3E(A,E,) (3(E,A,,E,,) | %40
 (3(A,,,E,A, (3EA,E,) (3z (E,A,, | (3E,A,E-)"^rit. e dim." (3(EA,E, (3=CE,A,,) | %42
 (3(!arpeggio![E,,,B,,]G,B, (3EB,G,) (3z (B,,E,, | (3B,,E,B,-) (3(B,E,B, (3E_ED) | %44
 (3!arpeggio![G,,,D,](D,G, (3DG,D,) (3z (D,G,, | (3D,G,D-) (3D(G,D,) (3(D,G,,D,,) | %46
 (3[G,,,G,,](D,G, (3DG,D,-)"^cresc." (3D,(G,,D,,) | (3[=F,,,=F,,](D,=F, (3DF,D,-) (3D,(=F,,D,,) | %48
 (3[E,,,E,,](D,G, (3[_B,D]G,D,-) (3D,(G,,E,,) | %49
 (3(!>![_E,,,_E,,]_B,,G,[K:treble] (3_B,^CG (3_Bcg) | %50
[K:bass] (3(!>![=E,,,=E,,]!5!=B,,G,[K:treble] (3!1!D!5!E!3!G (3A!1!B!2!G | %51
"^dim." (3!3!FE!5!D[K:bass] (3!1!B,A,G, (3!1!A,G,A,,) | %52
 (3(D,,A,,F,!<(! (3DEF (3[_B,G]!>(!G,_B,,)!<)!!>)! | %53
 (3(D,,A,,F,!<(! (3A,B,!<)!C!>(! (3DF,A,,)!>)! | (3(D,,A,,G,!<(! (3CDE!<)! (3F!<(!F,A,,)!<)! | %55
 (3(D,,A,,G,!<(! (3[CE]FG!<)! (3[=CA]DD,) | (3!arpeggio![D,,G,][K:treble](B,E (3GAB (3=c^DA,) | %57
[K:bass] (3!arpeggio![=D,,G,](B,[K:treble]E (3^D!<(!EF (3GB,[K:bass]=D,)!<)! | %58
 (3(D,,A,,G,[K:treble]!<(! (3[CE]FG!<)!"^cresc." (3[=CA][K:bass]DD,) | %59
 (3D,,(G,B,[K:treble]!<(! (3[EG]A^A!<)! (3[^EB][K:bass]B,D,) | %60
 (3!arpeggio![F,,,F,,C,](A,C[K:treble] A/B/^B/c/ (3[^Ed]D=B,) | %61
[K:bass] (3[F,,C,](A,[K:treble]C F/=G/^G/A/"^dim." (3[D_B][K:bass]_B,[G,,D,]) | %62
 (3(D,,A,,F,!<(! D/E/^E/F/!<)! (3[_B,G]G,_B,,) | (3(D,,A,,F,!<(! (3DEF!<)! (3[^A,G]"^dim."G,^A,,) | %64
 (3(B,,,F,B, (3DCB, [F,,A,]/E,/D,/F,,/) | %65
 (3[E,,,E,,](!5!B,,!2!G,[K:treble] (3!1!D!3!F!2!A (3!1!GDG,) |[K:bass] (3(A,,,A,,E, (3B,DF (3GFE | %67
 (3DB,E, (3A,F,E, (3!5!B,,!1!A,,A,,,) | (3(B,,,B,,^E, (3F,B,C (3DF,B,,) | %69
 (3[E,,,E,,](DA, (3G,D,E,,-) (3E,,(D,_B,) | (3(A,,,A,,F, (3A,=B,D (3CB,A, | %71
 (3B,A,F, (3A,F,E, (3A,,A,,,) z | (3(D,,!1!A,,!3!F, (3A,B,!3!C (3!1!DA,G, | %73
 (3F,A,B,[K:treble] (3CDE (3FA)[I:staff -1]c |[I:staff +1] !tenuto![B,DB]6- | %75
 [B,DB] z[K:bass] A,,4 | !fermata![D,,A,,]6 |] %77
V:3
 x6 | x6 | x6 | x6 | x6 | x6 | B, x x4 | B, x x4 | !arpeggio![G,B,] z z2 =C z | [B,D]2 z2 [D^E]2 | %10
 !arpeggio![A,CF]2 z2 [D^E]2 | !arpeggio![A,CF]2 z2 [_B,D]2 | [F,D]2 z2 [_B,C]2 | [A,D]2 z2 C2 | %14
 [F,B,]2 z2 D2 | x6 | [G,B,D]6- | [G,B,D]2 [G,C]4 | (!arpeggio!!tenuto![F,DF]4 !tenuto!E2) | %19
 (!arpeggio!!tenuto![F,DF]4 !tenuto!B,2) | (!tenuto![G,C]4 !tenuto!D!<(!!tenuto!C/!tenuto!D/)!<)! | %21
 !tenuto![G,CE]4 (3:2:2(!tenuto!F2 !tenuto!B) | (!tenuto![B,DG]4 !tenuto!F2) | %23
 (!tenuto![B,DG]4 (3:2:2!tenuto!D2 !tenuto!^D) | !tenuto![G,B,E]4 !tenuto!F2 | %25
 !tenuto![B,DG]4 (3!tenuto!^G3/2!tenuto!=G/!tenuto!^G | !arpeggio!!tenuto![F,DA]4 !tenuto!G2 | %27
 !arpeggio!!tenuto![F,DA]4 (3(!tenuto!G!tenuto!F!tenuto!G) | %28
 (!arpeggio!!tenuto![F,B,DF]4 !tenuto!E2) | %29
 !arpeggio!!tenuto![F,B,DF]4 (3(!tenuto!_E3/2!tenuto!D/!tenuto!E) | %30
 [D,G,_B,D]3 x/3 (3:2:1G- [DG]2 | (3z (!1!d!2!f (3!3!g!5!ag) (3z (dD) | (9:6:9z (d_BAGABGE-) | %33
 (3(DED [G,C]4) | !tenuto![F,D]6 | x6 | z !tenuto!f z4 | x6 | x6 | x2 E4 | z !tenuto!e z4 | %41
 x2 E2 EF | x6 | x4 G2 | z !tenuto!d z4 | x6 | x6 | x6 | x6 | x!8va(! x5 | x6!8va)! | x6 | %52
 z d'3 z c' | z d'3 z g | z a3 z b | z c'3 z d' | z e'3 z ^d' | z e'3 z b | z c'3 z d' | %59
 z e'3 z ^e' | z f'3 z ^e' | z f'3 (3!tenuto![=Gd=g]2 !tenuto!f/{/a}!tenuto!g/ | z d'3 z c' | %63
 z d'3 z c' | z b2 x z2 | z a'3 z g' | z g3 z2 | z2 z a3 | z b3 z2 | z d3 z g | z f3 x2 | %71
 z2 z"^dim." c z2 | z d3 z2 | x6 | x6 | x6 | x6 |] %77
V:4
 x6 | x6 | x14/3[K:treble] x4/3 | x6 |[K:bass] x2[K:treble] x4 | x16/3[K:bass] x2/3 | %6
 x2[K:treble] x4 | x14/3[K:bass] x4/3 | x2[K:treble] x4 | x4[K:bass] x2 | %10
 x2[K:treble] x8/3[K:treble] x4/3 |[K:bass] x2[K:treble] x2[K:bass] x2 | x2[K:treble] x4 | %13
[K:bass] x6 | x6 | x6 | x6 | x6 | x6 | x6 | x6 | x6 | x6 | x6 | x6 | x6 | x[K:treble] x5 | %27
[K:bass] x6 | x6 | x6 | x2[I:staff -1] (3D-[I:staff +1]=C(_B, (3G,D,G,,) | %31
 x4[K:treble] x4/3[K:bass] x2/3 | x6 | x6 | x6 | x6 | x6 | x6 | x6 | x6 | x6 | x6 | x6 | x6 | x6 | %45
 x6 | x6 | x6 | x6 | x2[K:treble] x4 |[K:bass] x2[K:treble] x4 | x2[K:bass] x4 | x6 | x6 | x6 | %55
 x6 | x2/3[K:treble] x16/3 |[K:bass] x4/3[K:treble] x4[K:bass] x2/3 | %58
 x2[K:treble] x8/3[K:bass] x4/3 | x2[K:treble] x8/3[K:bass] x4/3 | x2[K:treble] x4 | %61
[K:bass] x4/3[K:treble] x10/3[K:bass] x4/3 | x6 | x6 | x6 | x2[K:treble] x4 |[K:bass] x6 | x6 | %68
 x6 | x6 | x6 | x6 | x6 | x2[K:treble] x4 | x6 | x2[K:bass] x4 | x6 |] %77
V:5
 x6 | x6 | x14/3[K:treble] x4/3 | x6 |[K:bass] x2[K:treble] x4 | x16/3[K:bass] x2/3 | %6
 x2[K:treble] x4 | x14/3[K:bass] x4/3 | x2[K:treble] x4 | x4[K:bass] x2 | %10
 x2[K:treble] x8/3[K:treble] x4/3 |[K:bass] x2[K:treble] x2[K:bass] x2 | x2[K:treble] x4 | %13
[K:bass] x6 | x6 | x6 | x6 | x6 | x6 | x6 | x6 | x6 | x6 | x6 | x6 | x6 | x[K:treble] x5 | %27
[K:bass] x6 | x6 | x6 | x6 | [E,,,E,,]4[K:treble] z x/3[K:bass] x2/3 | A,,,6 | x6 | x6 | x6 | x6 | %37
 x6 | x6 | x6 | x6 | x6 | x6 | x6 | x6 | x6 | x6 | x6 | x6 | x2[K:treble] x4 | %50
[K:bass] x2[K:treble] x4 | x2[K:bass] x4 | x6 | x6 | x6 | x6 | x2/3[K:treble] x16/3 | %57
[K:bass] x4/3[K:treble] x4[K:bass] x2/3 | x2[K:treble] x8/3[K:bass] x4/3 | %59
 x2[K:treble] x8/3[K:bass] x4/3 | x2[K:treble] x4 |[K:bass] x4/3[K:treble] x10/3[K:bass] x4/3 | %62
 x6 | x6 | x6 | x2[K:treble] x4 |[K:bass] x6 | x6 | x6 | x6 | x6 | x6 | x6 | x2[K:treble] x4 | x6 | %75
 x2[K:bass] x4 | x6 |] %77

